packages/kaspersky-hexa-ui-icons/src/iconsSVGs/16x12/FlagSv.svg

<svg width="16" height="12" viewBox="0 0 16 12" fill="none" xmlns="http://www.w3.org/2000/svg">
<g clip-path="url(#clip0_41813_2043)">
<rect x="0.25" y="0.25" width="15.5" height="11.5" rx="1.75" fill="white" stroke="#F5F5F5" stroke-width="0.5"/>
<mask id="mask0_41813_2043" style="mask-type:luminance" maskUnits="userSpaceOnUse" x="0" y="0" width="16" height="12">
<rect x="0.25" y="0.25" width="15.5" height="11.5" rx="1.75" fill="white" stroke="white" stroke-width="0.5"/>
</mask>
<g mask="url(#mask0_41813_2043)">
<path fill-rule="evenodd" clip-rule="evenodd" d="M0 4H16V0H0V4Z" fill="#1B57C4"/>
<path fill-rule="evenodd" clip-rule="evenodd" d="M0 12H16V8H0V12Z" fill="#1B57C4"/>
<path d="M8.91345 4.72101C9.28357 5.01291 9.5238 5.47685 9.5238 6.00031C9.52365 6.88371 8.8417 7.59973 8.00037 7.59991C7.15888 7.59991 6.47611 6.88382 6.47595 6.00031C6.47595 5.47722 6.71567 5.01295 7.08533 4.72101L7.61951 6.39972H8.38123L8.91345 4.72101Z" fill="url(#paint0_linear_41813_2043)"/>
<path fill-rule="evenodd" clip-rule="evenodd" d="M7.99997 4.39999L8.38092 6.39999H7.61902L7.99997 4.39999Z" fill="#F9C92E"/>
</g>
</g>
<defs>
<linearGradient id="paint0_linear_41813_2043" x1="6.47595" y1="4.72101" x2="6.47595" y2="7.59991" gradientUnits="userSpaceOnUse">
<stop stop-color="#3C7839"/>
<stop offset="1" stop-color="#31642E"/>
</linearGradient>
<clipPath id="clip0_41813_2043">
<rect width="16" height="12" fill="white"/>
</clipPath>
</defs>
</svg>

<svg xmlns="http://www.w3.org/2000/svg" width="16" height="12" fill="none" viewBox="0 0 16 12"><g clip-path="url(#a)"><rect width="16" height="12" fill="#fff" stroke="#f5f5f5" rx="2"/><mask id="b" width="16" height="12" x="0" y="0" maskUnits="userSpaceOnUse" style="mask-type:luminance"><rect width="16" height="12" fill="#fff" stroke="#fff" rx="2"/></mask><g mask="url(#b)"><path fill="#1b57c4" fill-rule="evenodd" d="M0 4h16V0H0zm0 8h16V8H0z" clip-rule="evenodd"/><path fill="url(#c)" d="M8.9134 4.721c.3702.292.6104.7558.6104 1.2793-.0001.8834-.6821 1.5994-1.5234 1.5996-.8415 0-1.5243-.716-1.5245-1.5996 0-.523.2398-.9874.6094-1.2793l.5342 1.6787h.7617z"/><path fill="#f9c92e" fill-rule="evenodd" d="m8 4.4.381 2h-.762z" clip-rule="evenodd"/></g></g><defs><linearGradient id="c" x1="6" x2="6" y1="5" y2="8" gradientUnits="userSpaceOnUse"><stop stop-color="#3c7839"/><stop offset="1" stop-color="#31642e"/></linearGradient><clipPath id="a"><path fill="#fff" d="M0 0h16v12H0z"/></clipPath></defs></svg>
